assets/img/icon_week.svg

<svg width="43" height="43" viewBox="0 0 43 43" version="1.1" xmlns="http://www.w3.org/2000/svg" xmlns:xlink="http://www.w3.org/1999/xlink">
<title>icon_week</title>
<desc>Created using Figma</desc>
<g id="Canvas" transform="translate(-4536 -1162)">
<g id="icon_week">
<g id="Ellipse">
<use xlink:href="#path0_fill" transform="translate(4536 1162)" fill="#FFFFFF"/>
</g>
<g id="Group">
<g id="Group">
<g id="Group">
<g id="Vector">
<use xlink:href="#path1_fill" transform="translate(4550.98 1193.95)" fill="#8064FF"/>
</g>
<g id="Vector">
<use xlink:href="#path2_fill" transform="translate(4554.4 1177.7)" fill="#8064FF"/>
</g>
<g id="Vector">
<use xlink:href="#path3_fill" transform="translate(4545 1175.13)" fill="#8064FF"/>
</g>
<g id="Vector">
<use xlink:href="#path4_fill" transform="translate(4565.51 1187.96)" fill="#8064FF"/>
</g>
<g id="Vector">
<use xlink:href="#path5_fill" transform="translate(4545 1185.4)" fill="#8064FF"/>
</g>
<g id="Vector">
<use xlink:href="#path6_fill" transform="translate(4547.56 1182.83)" fill="#8064FF"/>
</g>
<g id="Vector">
<use xlink:href="#path7_fill" transform="translate(4565.51 1177.7)" fill="#8064FF"/>
</g>
<g id="Vector">
<use xlink:href="#path8_fill" transform="translate(4547.56 1177.7)" fill="#8064FF"/>
</g>
<g id="Vector">
<use xlink:href="#path9_fill" transform="translate(4558.67 1177.7)" fill="#8064FF"/>
</g>
<g id="Vector">
<use xlink:href="#path10_fill" transform="translate(4564.65 1175.13)" fill="#8064FF"/>
</g>
<g id="Vector">
<use xlink:href="#path11_fill" transform="translate(4558.67 1172.57)" fill="#8064FF"/>
</g>
<g id="Vector">
<use xlink:href="#path12_fill" transform="translate(4558.67 1182.83)" fill="#8064FF"/>
</g>
<g id="Vector">
<use xlink:href="#path13_fill" transform="translate(4554.4 1172.57)" fill="#8064FF"/>
</g>
<g id="Vector">
<use xlink:href="#path14_fill" transform="translate(4557.39 1190.53)" fill="#8064FF"/>
</g>
<g id="Vector">
<use xlink:href="#path15_fill" transform="translate(4554.4 1182.83)" fill="#8064FF"/>
</g>
<g id="Vector">
<use xlink:href="#path16_fill" transform="translate(4553.54 1187.96)" fill="#8064FF"/>
</g>
<g id="Vector">
<use xlink:href="#path17_fill" transform="translate(4565.51 1182.83)" fill="#8064FF"/>
</g>
<g id="Vector">
<use xlink:href="#path18_fill" transform="translate(4551.84 1170)" fill="#8064FF"/>
</g>
</g>
</g>
</g>
</g>
</g>
<defs>
<path id="path0_fill" d="M 43 21.5C 43 33.3741 33.3741 43 21.5 43C 9.62588 43 0 33.3741 0 21.5C 0 9.62588 9.62588 0 21.5 0C 33.3741 0 43 9.62588 43 21.5Z"/>
<path id="path1_fill" d="M 12.3897 2.20242e-07L 0.427215 2.20242e-07C 0.191403 2.20242e-07 1.43623e-07 0.191598 1.43623e-07 0.42765L 1.43623e-07 1.283C 1.43623e-07 1.51905 0.191403 1.71065 0.427215 1.71065C 0.663027 1.71065 0.854431 1.51905 0.854431 1.283L 0.854431 0.85535L 12.3897 0.85535C 12.6255 0.85535 12.8169 0.663752 12.8169 0.4277C 12.8169 0.191648 12.6256 2.20242e-07 12.3897 2.20242e-07Z"/>
<path id="path2_fill" d="M 8.55624e-08 2.99365C 8.55624e-08 3.2297 0.191404 3.4213 0.427216 3.4213L 2.13618 3.4213C 2.37199 3.4213 2.56339 3.2297 2.56339 2.99365L 2.56339 0.42765C 2.56339 0.191598 2.37199 3.05891e-07 2.13618 3.05891e-07L 0.427265 3.05891e-07C 0.191453 3.05891e-07 4.97423e-05 0.191598 4.97423e-05 0.42765L 4.97423e-05 2.99365L 8.55624e-08 2.99365ZM 0.854481 0.85535L 1.70896 0.85535L 1.70896 2.566L 0.854481 2.566L 0.854481 0.85535Z"/>
<path id="path3_fill" d="M 5.554 7.64728e-08L 0.427215 7.64728e-08C 0.191403 7.64728e-08 0 0.191598 0 0.42765L 0 8.981C 0 9.21705 0.191403 9.40865 0.427215 9.40865C 0.663027 9.40865 0.854431 9.21705 0.854431 8.981L 0.854431 0.85535L 5.554 0.85535C 5.78981 0.85535 5.98121 0.663752 5.98121 0.4277C 5.98121 0.191648 5.78986 7.64728e-08 5.554 7.64728e-08Z"/>
<path id="path4_fill" d="M 3.0558e-07 2.99365C 3.0558e-07 3.2297 0.191403 3.4213 0.427215 3.4213L 2.13613 3.4213C 2.37194 3.4213 2.56334 3.2297 2.56334 2.99365L 2.56334 0.427651C 2.56334 0.191599 2.37194 -3.05891e-07 2.13613 -3.05891e-07L 0.427215 -3.05891e-07C 0.191403 -3.05891e-07 3.0558e-07 0.191599 3.0558e-07 0.427651L 3.0558e-07 2.99365ZM 0.85448 0.855351L 1.70896 0.855351L 1.70896 2.566L 0.85448 2.566L 0.85448 0.855351Z"/>
<path id="path5_fill" d="M 2.13618 6.11782e-07C 0.0243322 6.11782e-07 0 5.50407 0 5.55965C 0 6.59246 0.735273 7.45593 1.70891 7.6548L 1.70891 9.83635C 1.70891 10.0724 1.90031 10.264 2.13613 10.264C 2.37194 10.264 2.56334 10.0724 2.56334 9.83635L 2.56334 7.6548C 3.53698 7.45593 4.27225 6.59246 4.27225 5.55965C 4.2723 5.50407 4.24797 6.11782e-07 2.13618 6.11782e-07ZM 2.13618 6.84265C 1.42954 6.84265 0.854481 6.267 0.854481 5.55965C 0.854481 3.42902 1.42614 0.855299 2.13618 0.855299C 2.84622 0.855299 3.41787 3.42902 3.41787 5.55965C 3.41787 6.267 2.84281 6.84265 2.13618 6.84265Z"/>
<path id="path6_fill" d="M 2.13618 0L 0.427215 0C 0.191403 0 3.81975e-08 0.191597 3.81975e-08 0.427649L 3.81975e-08 1.283C 3.81975e-08 1.51905 0.191403 1.71065 0.427215 1.71065C 0.663027 1.71065 0.85443 1.51905 0.85443 1.283L 0.85443 0.855349L 1.70891 0.855349L 1.70891 2.9937C 1.70891 3.22975 1.90031 3.42135 2.13613 3.42135C 2.37194 3.42135 2.56334 3.22975 2.56334 2.9937L 2.56334 0.4277C 2.56339 0.191598 2.37199 0 2.13618 0Z"/>
<path id="path7_fill" d="M 0.427215 3.4213L 2.13613 3.4213C 2.37194 3.4213 2.56334 3.2297 2.56334 2.99365L 2.56334 0.42765C 2.56334 0.191598 2.37194 -1.04003e-07 2.13613 -1.04003e-07L 0.427215 -1.04003e-07C 0.191403 -1.04003e-07 3.0558e-07 0.191598 3.0558e-07 0.42765L 3.0558e-07 2.99365C 3.0558e-07 3.2297 0.191403 3.4213 0.427215 3.4213ZM 0.85448 0.8553L 1.70896 0.8553L 1.70896 2.56595L 0.85448 2.56595L 0.85448 0.8553Z"/>
<path id="path8_fill" d="M 2.13618 3.05891e-07L 0.427215 3.05891e-07C 0.191403 3.05891e-07 3.81975e-08 0.191598 3.81975e-08 0.42765L 3.81975e-08 2.99365C 3.81975e-08 3.2297 0.191403 3.4213 0.427215 3.4213L 2.13613 3.4213C 2.37194 3.4213 2.56334 3.2297 2.56334 2.99365L 2.56334 0.42765C 2.56339 0.191598 2.37199 3.05891e-07 2.13618 3.05891e-07ZM 1.70891 2.566L 0.854481 2.566L 0.854481 0.85535L 1.70896 0.85535L 1.70896 2.566L 1.70891 2.566Z"/>
<path id="path9_fill" d="M -6.96723e-07 2.99365C -6.96723e-07 3.2297 0.191404 3.4213 0.427216 3.4213L 2.13613 3.4213C 2.37194 3.4213 2.56334 3.2297 2.56334 2.99365L 2.56334 0.42765C 2.56334 0.191598 2.37194 3.05891e-07 2.13613 3.05891e-07L 0.427216 3.05891e-07C 0.191404 3.05891e-07 -6.96723e-07 0.191598 -6.96723e-07 0.42765L -6.96723e-07 2.99365ZM 0.85443 0.85535L 1.70891 0.85535L 1.70891 2.566L 0.85443 2.566L 0.85443 0.85535Z"/>
<path id="path10_fill" d="M 5.554 7.64728e-08L 0.427215 7.64728e-08C 0.191403 7.64728e-08 -1.71125e-07 0.191598 -1.71125e-07 0.42765C -1.71125e-07 0.663702 0.191403 0.8553 0.427215 0.8553L 5.12678 0.8553L 5.12678 18.0407C 4.99266 17.9928 4.85037 17.962 4.69957 17.962C 4.62567 17.962 4.55217 17.9684 4.47998 17.9812C 4.18519 17.4497 3.62425 17.1066 2.99066 17.1066C 2.35707 17.1066 1.79613 17.4497 1.50134 17.9812C 1.42914 17.9684 1.35564 17.962 1.28175 17.962C 0.575111 17.962 5.02496e-05 18.5376 5.02496e-05 19.245C 5.02496e-05 19.9524 0.575111 20.528 1.28175 20.528L 4.69952 20.528C 5.40615 20.528 5.98121 19.9524 5.98121 19.245L 5.98121 0.42765C 5.98121 0.191598 5.78981 7.64728e-08 5.554 7.64728e-08ZM 4.69952 19.6727L 1.28165 19.6727C 1.04623 19.6727 0.854431 19.4806 0.854431 19.245C 0.854431 19.0093 1.04623 18.8174 1.28165 18.8174C 1.36365 18.8174 1.44141 18.8409 1.5132 18.8871C 1.63026 18.9623 1.7764 18.976 1.90542 18.9238C 2.03444 18.8717 2.12972 18.7596 2.16091 18.624C 2.25108 18.2344 2.59243 17.962 2.99061 17.962C 3.38878 17.962 3.73014 18.2344 3.8203 18.624C 3.8515 18.7596 3.94677 18.8717 4.07579 18.9238C 4.20441 18.976 4.35091 18.9623 4.46801 18.8871C 4.74613 18.7074 5.12678 18.9273 5.12678 19.245C 5.12673 19.4806 4.93493 19.6727 4.69952 19.6727Z"/>
<path id="path11_fill" d="M 0.427216 3.4213L 2.13613 3.4213C 2.37194 3.4213 2.56334 3.2297 2.56334 2.99365L 2.56334 0.42765C 2.56334 0.191598 2.37194 1.07062e-08 2.13613 1.07062e-08L 0.427216 1.07062e-08C 0.191404 1.07062e-08 -6.96723e-07 0.191598 -6.96723e-07 0.42765L -6.96723e-07 2.99365C -6.96723e-07 3.2297 0.191404 3.4213 0.427216 3.4213ZM 0.85443 0.8553L 1.70891 0.8553L 1.70891 2.56595L 0.85443 2.56595L 0.85443 0.8553Z"/>
<path id="path12_fill" d="M -6.96723e-07 2.99365C -6.96723e-07 3.2297 0.191404 3.4213 0.427216 3.4213L 2.13613 3.4213C 2.37194 3.4213 2.56334 3.2297 2.56334 2.99365L 2.56334 0.427649C 2.56334 0.191597 2.37194 0 2.13613 0L 0.427216 0C 0.191404 0 -6.96723e-07 0.191597 -6.96723e-07 0.427649L -6.96723e-07 2.99365ZM 0.85443 0.855349L 1.70891 0.855349L 1.70891 2.566L 0.85443 2.566L 0.85443 0.855349Z"/>
<path id="path13_fill" d="M 0.427215 3.4213L 2.13613 3.4213C 2.37194 3.4213 2.56334 3.2297 2.56334 2.99365L 2.56334 0.42765C 2.56334 0.191598 2.37194 1.07062e-08 2.13613 1.07062e-08L 0.427215 1.07062e-08C 0.191403 1.07062e-08 -3.14095e-07 0.191598 -3.14095e-07 0.42765L -3.14095e-07 2.99365C -5.03803e-05 3.2297 0.191353 3.4213 0.427215 3.4213ZM 0.854431 0.8553L 1.70891 0.8553L 1.70891 2.56595L 0.854431 2.56595L 0.854431 0.8553Z"/>
<path id="path14_fill" d="M 0.123914 0.118703C 0.0470119 0.199943 1.71125e-07 0.311153 1.71125e-07 0.422363C 1.71125e-07 0.533573 0.0470119 0.644732 0.123914 0.726022C 0.205071 0.803002 0.316168 0.850063 0.427265 0.850063C 0.538362 0.850063 0.649409 0.803002 0.730616 0.726022C 0.807518 0.644782 0.854531 0.533573 0.854531 0.422363C 0.854531 0.311153 0.807518 0.199993 0.730616 0.118703C 0.568251 -0.0395669 0.286279 -0.0395669 0.123914 0.118703Z"/>
<path id="path15_fill" d="M 8.55624e-08 2.99365C 8.55624e-08 3.2297 0.191404 3.4213 0.427216 3.4213L 2.13618 3.4213C 2.37199 3.4213 2.56339 3.2297 2.56339 2.99365L 2.56339 0.427649C 2.56339 0.191597 2.37199 0 2.13618 0L 0.427265 0C 0.191453 0 4.97423e-05 0.191597 4.97423e-05 0.427649L 4.97423e-05 2.99365L 8.55624e-08 2.99365ZM 0.854481 0.855349L 1.70896 0.855349L 1.70896 2.566L 0.854481 2.566L 0.854481 0.855349Z"/>
<path id="path16_fill" d="M 3.72808e-07 0.427651C 3.72808e-07 0.663703 0.191403 0.8553 0.427215 0.8553L 1.70891 0.8553L 1.70891 4.7043C 1.70891 4.94035 1.90031 5.13195 2.13613 5.13195C 2.37194 5.13195 2.56334 4.94035 2.56334 4.7043L 2.56334 0.8553L 5.98121 0.8553L 5.98121 4.7043C 5.98121 4.94035 6.17262 5.13195 6.40843 5.13195C 6.64424 5.13195 6.83565 4.94035 6.83565 4.7043L 6.83565 0.8553L 8.11734 0.8553C 8.35315 0.8553 8.54456 0.663703 8.54456 0.427651C 8.54456 0.191599 8.35315 -3.05891e-07 8.11734 -3.05891e-07L 0.427215 -3.05891e-07C 0.191403 -3.05891e-07 3.72808e-07 0.191599 3.72808e-07 0.427651Z"/>
<path id="path17_fill" d="M 3.0558e-07 2.99365C 3.0558e-07 3.2297 0.191403 3.4213 0.427215 3.4213L 2.13613 3.4213C 2.37194 3.4213 2.56334 3.2297 2.56334 2.99365L 2.56334 0.427649C 2.56334 0.191597 2.37194 0 2.13613 0L 0.427215 0C 0.191403 0 3.0558e-07 0.191597 3.0558e-07 0.427649L 3.0558e-07 2.99365ZM 0.85448 0.855349L 1.70896 0.855349L 1.70896 2.566L 0.85448 2.566L 0.85448 0.855349Z"/>
<path id="path18_fill" d="M 11.5352 0L 0.427215 0C 0.191403 0 -1.71125e-07 0.191598 -1.71125e-07 0.42765L -1.71125e-07 22.6663C -1.71125e-07 22.9023 0.191403 23.0939 0.427215 23.0939C 0.663027 23.0939 0.854431 22.9023 0.854431 22.6663L 0.854431 0.8553L 11.108 0.8553L 11.108 22.6663C 11.108 22.9023 11.2994 23.0939 11.5352 23.0939C 11.771 23.0939 11.9624 22.9023 11.9624 22.6663L 11.9624 0.42765C 11.9625 0.191598 11.7711 0 11.5352 0Z"/>
</defs>
</svg>

<svg width="43" height="43" xmlns="http://www.w3.org/2000/svg" xmlns:xlink="http://www.w3.org/1999/xlink"><use xlink:href="#path0_fill" fill="#FFF"/><use xlink:href="#path1_fill" transform="translate(14.98 31.95)" fill="#8064FF"/><use xlink:href="#path2_fill" transform="translate(18.4 15.7)" fill="#8064FF"/><use xlink:href="#path3_fill" transform="translate(9 13.13)" fill="#8064FF"/><use xlink:href="#path4_fill" transform="translate(29.51 25.96)" fill="#8064FF"/><use xlink:href="#path5_fill" transform="translate(9 23.4)" fill="#8064FF"/><use xlink:href="#path6_fill" transform="translate(11.56 20.83)" fill="#8064FF"/><use xlink:href="#path7_fill" transform="translate(29.51 15.7)" fill="#8064FF"/><use xlink:href="#path8_fill" transform="translate(11.56 15.7)" fill="#8064FF"/><use xlink:href="#path9_fill" transform="translate(22.67 15.7)" fill="#8064FF"/><use xlink:href="#path10_fill" transform="translate(28.65 13.13)" fill="#8064FF"/><use xlink:href="#path11_fill" transform="translate(22.67 10.57)" fill="#8064FF"/><use xlink:href="#path12_fill" transform="translate(22.67 20.83)" fill="#8064FF"/><use xlink:href="#path13_fill" transform="translate(18.4 10.57)" fill="#8064FF"/><use xlink:href="#path14_fill" transform="translate(21.39 28.53)" fill="#8064FF"/><use xlink:href="#path15_fill" transform="translate(18.4 20.83)" fill="#8064FF"/><use xlink:href="#path16_fill" transform="translate(17.54 25.96)" fill="#8064FF"/><use xlink:href="#path17_fill" transform="translate(29.51 20.83)" fill="#8064FF"/><use xlink:href="#path18_fill" transform="translate(15.84 8)" fill="#8064FF"/><defs><path id="path0_fill" d="M43 21.5C43 33.374 33.374 43 21.5 43S0 33.374 0 21.5 9.626 0 21.5 0 43 9.626 43 21.5z"/><path id="path1_fill" d="M12.39 0H.427A.428.428 0 0 0 0 .428v.855a.428.428 0 1 0 .854 0V.855H12.39a.428.428 0 0 0 0-.855z"/><path id="path2_fill" d="M0 2.994c0 .236.191.427.427.427h1.71a.428.428 0 0 0 .426-.427V.428A.428.428 0 0 0 2.136 0H.427A.428.428 0 0 0 0 .428v2.566zM.854.855h.855v1.711H.854V.856z"/><path id="path3_fill" d="M5.554 0H.427A.428.428 0 0 0 0 .428V8.98a.428.428 0 1 0 .854 0V.855h4.7a.428.428 0 0 0 0-.855z"/><path id="path4_fill" d="M0 2.994c0 .236.191.427.427.427h1.71a.428.428 0 0 0 .426-.427V.428A.428.428 0 0 0 2.136 0H.427A.428.428 0 0 0 0 .428v2.566zM.854.855h.855v1.711H.854V.856z"/><path id="path5_fill" d="M2.136 0C.024 0 0 5.504 0 5.56c0 1.032.735 1.896 1.709 2.095v2.181a.428.428 0 1 0 .854 0V7.655a2.141 2.141 0 0 0 1.71-2.095c0-.056-.025-5.56-2.137-5.56zm0 6.843A1.284 1.284 0 0 1 .854 5.56c0-2.131.572-4.705 1.282-4.705.71 0 1.282 2.574 1.282 4.705 0 .707-.575 1.283-1.282 1.283z"/><path id="path6_fill" d="M2.136 0H.427A.428.428 0 0 0 0 .428v.855a.428.428 0 1 0 .854 0V.855h.855v2.139a.428.428 0 1 0 .854 0V.428A.428.428 0 0 0 2.136 0z"/><path id="path7_fill" d="M.427 3.421h1.71a.428.428 0 0 0 .426-.427V.428A.428.428 0 0 0 2.136 0H.427A.428.428 0 0 0 0 .428v2.566c0 .236.191.427.427.427zM.854.855h.855v1.711H.854V.856z"/><path id="path8_fill" d="M2.136 0H.427A.428.428 0 0 0 0 .428v2.566c0 .236.191.427.427.427h1.71a.428.428 0 0 0 .426-.427V.428A.428.428 0 0 0 2.136 0zM1.71 2.566H.854V.856h.855v1.71z"/><path id="path9_fill" d="M0 2.994c0 .236.191.427.427.427h1.71a.428.428 0 0 0 .426-.427V.428A.428.428 0 0 0 2.136 0H.427A.428.428 0 0 0 0 .428v2.566zM.854.855h.855v1.711H.854V.856z"/><path id="path10_fill" d="M5.554 0H.427a.428.428 0 0 0 0 .855h4.7v17.186a1.264 1.264 0 0 0-.647-.06 1.697 1.697 0 0 0-1.49-.874c-.633 0-1.194.343-1.489.874a1.284 1.284 0 1 0-.22 2.547H4.7c.706 0 1.281-.576 1.281-1.283V.428A.428.428 0 0 0 5.554 0zM4.7 19.673H1.282a.428.428 0 0 1 0-.856.42.42 0 0 1 .231.07.428.428 0 0 0 .648-.263.85.85 0 0 1 .83-.662.85.85 0 0 1 .83.662.426.426 0 0 0 .647.263c.278-.18.659.04.659.358a.428.428 0 0 1-.427.428z"/><path id="path11_fill" d="M.427 3.421h1.71a.428.428 0 0 0 .426-.427V.428A.428.428 0 0 0 2.136 0H.427A.428.428 0 0 0 0 .428v2.566c0 .236.191.427.427.427zM.854.855h.855v1.711H.854V.856z"/><path id="path12_fill" d="M0 2.994c0 .236.191.427.427.427h1.71a.428.428 0 0 0 .426-.427V.428A.428.428 0 0 0 2.136 0H.427A.428.428 0 0 0 0 .428v2.566zM.854.855h.855v1.711H.854V.856z"/><path id="path13_fill" d="M.427 3.421h1.71a.428.428 0 0 0 .426-.427V.428A.428.428 0 0 0 2.136 0H.427A.428.428 0 0 0 0 .428v2.566c0 .236.191.427.427.427zM.854.855h.855v1.711H.854V.856z"/><path id="path14_fill" d="M.124.119A.45.45 0 0 0 0 .422a.45.45 0 0 0 .124.304.449.449 0 0 0 .303.124.45.45 0 0 0 .304-.124.45.45 0 0 0 .124-.304A.45.45 0 0 0 .73.12a.447.447 0 0 0-.607 0z"/><path id="path15_fill" d="M0 2.994c0 .236.191.427.427.427h1.71a.428.428 0 0 0 .426-.427V.428A.428.428 0 0 0 2.136 0H.427A.428.428 0 0 0 0 .428v2.566zM.854.855h.855v1.711H.854V.856z"/><path id="path16_fill" d="M0 .428c0 .236.191.427.427.427H1.71v3.85a.428.428 0 1 0 .854 0V.854h3.418v3.85a.428.428 0 1 0 .855 0V.854h1.281a.428.428 0 0 0 0-.855H.427A.428.428 0 0 0 0 .428z"/><path id="path17_fill" d="M0 2.994c0 .236.191.427.427.427h1.71a.428.428 0 0 0 .426-.427V.428A.428.428 0 0 0 2.136 0H.427A.428.428 0 0 0 0 .428v2.566zM.854.855h.855v1.711H.854V.856z"/><path id="path18_fill" d="M11.535 0H.427A.428.428 0 0 0 0 .428v22.238a.428.428 0 1 0 .854 0V.856h10.254v21.81a.428.428 0 1 0 .854 0V.428A.427.427 0 0 0 11.535 0z"/></defs></svg>
